static/PB.svg

<svg fill="none" height="114" viewBox="0 0 171 114" width="171" xmlns="http://www.w3.org/2000/svg"><path d="m34.04.719999c12.9067 0 22.6133 2.933331 29.12 8.799991 6.5067 5.76001 9.76 13.92001 9.76 24.48001 0 10.4533-3.36 18.6667-10.08 24.64-6.6133 5.8667-16.2133 8.8-28.8 8.8h-18.08v46.56h-15.36v-113.280001zm0 53.920001c7.36 0 13.0133-1.76 16.96-5.28s5.92-8.64 5.92-15.36-1.9733-11.7867-5.92-15.2c-3.84-3.52-9.4933-5.28-16.96-5.28h-18.08v41.12zm115.038-.16c7.253 2.0267 12.693 5.28 16.32 9.76 3.733 4.3733 5.6 9.8133 5.6 16.32 0 10.4533-3.36 18.6667-10.08 24.64-6.614 5.867-16.214 8.8-28.8 8.8h-38.0805v-113.280001h33.4395c12.907 0 22.614 2.613331 29.121 7.839991 6.506 5.22671 9.76 12.64001 9.76 22.24001 0 11.4133-5.76 19.3067-17.28 23.68zm-39.84-40.96v35.52h18.239c7.467 0 13.121-1.4933 16.961-4.48 3.946-3.0933 5.92-7.68 5.92-13.76 0-11.52-7.627-17.28-22.881-17.28zm22.88 87.68c7.36 0 13.013-1.76 16.96-5.28 3.946-3.52 5.92-8.64 5.92-15.36 0-6.1867-2.187-10.8267-6.56-13.92-4.267-3.2-10.507-4.8-18.72-4.8h-20.48v39.36z" fill="#fff"/></svg>

<svg width="171" height="114" viewBox="0 0 171 114" fill="none" xmlns="http://www.w3.org/2000/svg">
<path d="M34.04 0.719999C46.9467 0.719999 56.6533 3.65333 63.16 9.51999C69.6667 15.28 72.92 23.44 72.92 34C72.92 44.4533 69.56 52.6667 62.84 58.64C56.2267 64.5067 46.6267 67.44 34.04 67.44H15.96V114H0.6V0.719999H34.04ZM34.04 54.64C41.4 54.64 47.0533 52.88 51 49.36C54.9467 45.84 56.92 40.72 56.92 34C56.92 27.28 54.9467 22.2133 51 18.8C47.16 15.28 41.5067 13.52 34.04 13.52H15.96V54.64H34.04ZM149.078 54.48C156.331 56.5067 161.771 59.76 165.398 64.24C169.131 68.6133 170.998 74.0533 170.998 80.56C170.998 91.0133 167.638 99.2267 160.918 105.2C154.304 111.067 144.704 114 132.118 114H94.0375V0.719999H127.477C140.384 0.719999 150.091 3.33333 156.598 8.55999C163.104 13.7867 166.358 21.2 166.358 30.8C166.358 42.2133 160.598 50.1067 149.078 54.48ZM109.238 13.52V49.04H127.477C134.944 49.04 140.598 47.5467 144.438 44.56C148.384 41.4667 150.358 36.88 150.358 30.8C150.358 19.28 142.731 13.52 127.477 13.52H109.238ZM132.118 101.2C139.478 101.2 145.131 99.44 149.078 95.92C153.024 92.4 154.998 87.28 154.998 80.56C154.998 74.3733 152.811 69.7333 148.438 66.64C144.171 63.44 137.931 61.84 129.718 61.84H109.238V101.2H132.118Z" fill="white"/>
</svg>
